X:1
T:Czardas
T:Czardas
T:Organ Prelude in D
T:Vittorio Monti
C:Vittorio Monti
%%score { ( 1 4 ) | ( 2 5 6 ) | 3 }
L:1/8
Q:1/4=40
M:4/4
K:F
V:1 treble nm="Pipe Organ" snm="Org."
V:4 treble 
V:2 bass 
V:5 bass 
V:6 bass 
V:3 bass-8 
V:1
!fff! D/4F/4A/4d/4-d D/4F/4A/4d/4-d B/4d/4e/4g/4 b3 | aA A/4B/4A/4^G/4(3A/^c/e/ b2 G/8A/8Pc3/4-c | %2
 d4 z4 |[Q:1/4=50] z4 z!f! A,{/C}B,A, | A4- AFFG |{FG} FE B2- B3 B, | B,A,^CE GGFC | %7
 ED{DE} .D/.^C/.D/.E/ FA,{/=C}B,A, | A4- AFFG |{FG} FE B2- B3 B, | B,A,D^C G3 E | %11
!f! ED{DE}D^C D4 |: =C2- (3C/E/G/(3B/c/e/ g/>f/e/>d/ cB | BA{AB} A>^G A4 | %14
 A,2- (3A,/^C/E/(3=G/A/^c/ e.caA | ed{de} d/^c/d/e/ f2 f2 | %16
 f2 B2- B/4e/4f/4e/4^d/4e/4f/4e/4 (3gfe | eA A2- A^G/A/ B/A/c/>B/ | %18
{Bc} B/A/{AB}A/=G/{GA} G/F/{FG}F/E/ A3 E | ED{DE}D^C D4 ::[M:2/4][Q:1/4=120]!p! .d.d' z .b | %21
 z .a z .f | e d2 ^c | d3 z | .d/.e/.f/.e/ .d/.e/.f/.e/ | .d/.e/.f/.e/ .d/.e/.f/.e/ | f e2 ^d | %27
 e3 z | .g/.a/.b/.a/ .g/.a/.b/.a/ | .g/.a/.b/.a/ .g/.a/.b/.a/ | .f/.g/.a/.g/ .f/.g/.a/.g/ | %31
 .f/.g/.a/.g/ .f/.g/.a/.g/ | .A/.=B/.^c/.d/ .e/.f/.g/.a/ | ._b/.a/.g/.f/ .e/.d/.^c/.e/ | e d2 ^c |1 %35
 d2 z2 :|2 d2 .e.d |:!mf!{cd} .c/.=B/.c/.e/ .g/._b/.g/.e/ |{cd} .c/.=B/.c/.e/ .g/._b/.g/.e/ | %39
 .B/.A/.B/.c/ .d/.e/.f/.g/ | a3 z |{/B} .A/.^G/.A/.^c/ .e/.=g/.e/.c/ | %42
{/B} .A/.^G/.A/.^c/ .e/.=g/.e/.c/ |{/B} .A/.^G/.A/.^c/ .e/.=g/.e/.c/ | f3 z | %45
 .b/.a/.g/.a/ .b/.a/.g/.a/ | .b/.a/.g/.a/ .b/.a/.g/.a/ | .a/.g/.f/.g/ .a/.g/.f/.g/ | %48
 .a/.g/.f/.g/ .a/.g/.f/.g/ | .A/.=B/.^c/.d/ .e/.f/.g/.a/ | ._b/.a/.g/.f/ .e/.d/.^c/.e/ | e d2 ^c |1 %52
 d2 z2 :|2[K:D][Q:1/4=45] d4 || d'2 a>a | ba gf | fe{ef} e/^d/e/g/ | b4 | b>c ce' | e'>g gg | %60
 gf{fg} f/e/d/e/ | [df]4 | d'2 a>a | ba gf | fe{ef} e/^d/e/g/ | b4 | d'>a aa | ba ac | ed{de} dc | %69
 d2 z2 || f2 d>c | dc BA | AG GB | d4 | d>c cd | ed cB | BA A^G | A4 | f2 d>c | dc BA | AG GB | %81
 d4 | f2 d>c | dc cE | GF F^E | !fermata!F2 z2 ||[Q:1/4=120]{=cd} .c/.=B/.c/.e/ .g/._b/.g/.e/ | %87
{=cd} .c/.=B/.c/.e/ .g/._b/.g/.e/ | ._B/.A/.B/.c/ .d/.e/.f/.g/ | a3 z | %90
{/_B} .A/.^G/.A/.c/ .e/.=g/.e/.c/ |{/_B} .A/.^G/.A/.c/ .e/.=g/.e/.c/ | %92
{/_B} .A/.^G/.A/.c/ .e/.=g/.e/.c/ | f3 z | .b/.a/.g/.a/ .b/.a/.g/.a/ | .b/.a/.g/.a/ .b/.a/.g/.a/ | %96
 .a/.g/.f/.g/ .a/.g/.f/.g/ | .a/.g/.f/.g/ .a/.g/.f/.g/ | .A/.B/.c/.d/ .e/.=f/.g/.a/ | %99
 ._b/.a/.g/.=f/ .e/.d/.c/.e/ || d' z3 | z4 ||!f! d d'2 b- | b a2 f | e d2 c | d3 z | %106
 .d/.e/.f/.e/ .d/.e/.f/.e/ | .d/.e/.f/.e/ .d/.e/.f/.e/ | f e2 ^d | e3 z | %110
 .g/.a/.b/.a/ .g/.a/.b/.a/ | .g/.a/.b/.a/ .g/.a/.b/.a/ | .f/.g/.a/.g/ .f/.g/.a/.g/ | %113
 .f/.g/.a/.g/ .f/.g/.a/.g/ | .e/.f/.^g/.f/ .e/.f/.g/.f/ | .e/.f/.^g/.f/ .e/.f/.g/.f/ | %116
!<(! a a2 a- |!ff! a!<)! a2 A || d d'2 b- | b a2 .f | .e d2 c | d3 z | .d/.e/.f/.e/ .d/.e/.f/.e/ | %123
 .d/.e/.f/.e/ .d/.e/.f/.e/ | f e2 ^d | e3 z || .g/.a/.b/.a/ .g/.a/.b/.a/ | %127
 .g/.a/.b/.a/ .g/.a/.b/.a/ | .f/.g/.a/.g/ .f/.g/.a/.g/ | .f/.g/.a/.g/ .f/.g/.a/.g/ | %130
 .e/.^d/.e/.f/ .g/.f/.g/.a/ | .b/.a/.^g/.a/ .g/.a/.b/.c'/ | d'2 z2 |!fff! [ac']2 z2 | %134
[Q:1/4=25] !fermata![ad']4 |] %135
V:2
 z8 | z8 | z [A,,D,F,]3 z4 | z8 | [D,F,]4 z4 | [D,F,]4 z4 | [D,E,] .[^C,E,]3 [D,F,] .[C,E,G,]3 | %7
 z D,/E,/ F,/E,/F,/G,/ F,/E,/{/D,} ^C,2 E, |{/G,} F,2 A,D A,2- A,/F,/G,/A,/ | %9
 B,/A,/G,/F,/{/A,} G,2 G,/F,/E,/D,/ E,/D,/C,/B,,/ | %10
 A,,/B,,/^C,/D,/ E,/F,/G,/A,/ B,/A,/G,/A,/ G,>G, | G,2 F,E, [F,A,]4 |: %12
 E,2- (3E,/D,/C,/(3B,,/A,,/G,,/ z4 | .C,2 .E,2 F,4 | E,2 z E, [E,G,]2 z [E,G,] | %15
 [D,F,]4 z/{/G,,} A,,/D,/E,/ F,/E,/D,/C,/ | z/ A,/G,/F,/ E,F, G,2 (3A,G,F, | %17
 G,F,{F,G,} F,>E, F,2 z E, | E, z{B,C} B,/A,/{A,B,}A,/=G,/{G,A,} G,/F,/{F,G,}F,/E,/ ^C,2- | %19
 C,D,{D,E,}D,[^C,E,] [D,F,]4 ::[M:2/4] z4 | .D,.D z .B, | G, F,2 E, | F,3 z | %24
 .F,/.G,/.A,/.G,/ .F,/.G,/.A,/.G,/ | .F,/.G,/.A,/.G,/ .F,/.G,/.A,/.G,/ | A, G,2 ^F, | G,3 z | %28
 .B,/.C/.D/.C/ .B,/.C/.D/.C/ | .B,/.C/.D/.C/ .B,/.C/.D/.C/ | .A,/.B,/.C/.B,/ .A,/.B,/.C/.B,/ | %31
 .A,/.B,/.C/.B,/ .A,/.B,/.C/.B,/ | .E/.D/.^C/.=B,/ .A,/.G,/.F,/.E,/ | %33
 .D,/.E,/.F,/.G,/ .A,/.B,/.^C/.A,/ | G, F,2 E, |1 F,2 z2 :|2 F,2 .D,.E, |:{/F,} .G,.B, .G,.C, | %38
{/F,} .G,.B, .G,.C, |{/E,} .F,.G, .A,.B, | C3 z |{/D,} .E,.G, .E,.A,, |{/D,} .E,.G, .E,.A,, | %43
{/G,} .A,.G, .F,.E, | D,3 z | .D/.C/.B,/.C/ .D/.C/.B,/.C/ | .D/.C/.B,/.C/ .D/.C/.B,/.C/ | %47
 .C/.B,/.A,/.B,/ .C/.B,/.A,/.B,/ | .C/.B,/.A,/.B,/ .C/.B,/.A,/.B,/ | %49
 .E/.D/.^C/.=B,/ .A,/.G,/.F,/.E,/ | .D,/.E,/.F,/.G,/ .A,/.B,/.^C/.A,/ | G, F,2 E, |1 F,2 z2 :|2 %53
[K:D] _B,4 || A,2 z2 | z4 | A,2 z2 | z4 | G,2 z2 | z4 | G,2 F,E, | F,3 z | D2 z2 | z4 | D2 z2 | %65
 z4 | D2 z2 | C2 z2 | D4- | D2 z2 || A,2 A,>A, | A,A, B,C | B,B, A,G, | G,4 | A,>G, G,G, | %75
 A,G, G,B, | A,A, A,A, | A,4 | A,2 A,>A, | A,A, B,C | B,B, A,G, | G,4 | F,2 F,>G, | A,G, G,A, | %84
 A,A, A,A, | A,2 z2 ||{/=F,} .G,._B, .G,.=C, |{/=F,} .G,._B, .G,.=C, |{/E,} .=F,.G, .A,._B, | %89
 =C3 z |{/D,} .E,.G, .E,.A,, |{/D,} .E,.G, .E,.A,, |{/G,} .A,.G, .F,.E, | D,3 z | %94
 .D/.C/.B,/.C/ .D/.C/.B,/.C/ | .D/.C/.B,/.C/ .D/.C/.B,/.C/ | .C/.B,/.A,/.B,/ .C/.B,/.A,/.B,/ | %97
 .C/.B,/.A,/.B,/ .C/.B,/.A,/.B,/ | .E/.D/.C/.B,/ .A,/.G,/.=F,/.E,/ | %99
 .D,/.E,/.=F,/.G,/ .A,/._B,/.C/.A,/ || A, z3 | z4 || z4 | D, D2 B, | G, F,2 E, | F,3 z | %106
 .F,/.G,/.A,/.G,/ .F,/.G,/.A,/.G,/ | .F,/.G,/.A,/.G,/ .F,/.G,/.A,/.G,/ | A, G,2 F, | G,3 z | %110
 .B,/.C/.D/.C/ .B,/.C/.D/.C/ | .B,/.C/.D/.C/ .B,/.C/.D/.C/ | .A,/.B,/.C/.B,/ .A,/.B,/.C/.B,/ | %113
 .A,/.B,/.C/.B,/ .A,/.B,/.C/.B,/ | .^G,/.^A,/.B,/.A,/ .G,/.A,/.B,/.A,/ | %115
 .^G,/.^A,/.B,/.A,/ .G,/.A,/.B,/.A,/ |{A,B,} .A,/.^G,/.A,/.C/ .E/.G/.F/.E/ | %117
 D/C/B,/A,/ G,/F,/E,/C,/ || z4 | D, D2 .B, | .G, F,2 E, | F,3 z | %122
 .F,/.G,/.A,/.G,/ .F,/.G,/.A,/.G,/ | .F,/.G,/.A,/.G,/ .F,/.G,/.A,/.G,/ | A, G,2 F, | G,3 z || %126
 .B,/.C/.D/.C/ .B,/.C/.D/.C/ | .B,/.C/.D/.C/ .B,/.C/.D/.C/ | .A,/.B,/.C/.B,/ .A,/.B,/.C/.B,/ | %129
 .A,/.B,/.C/.B,/ .A,/.B,/.C/.B,/ |{A,B,} .A,/.^G,/.A,/.C/ .E/.G/.F/.E/ | D/C/B,/A,/ G,/F,/E,/C,/ | %132
 D,2 z2 | [G,B,]2 z2 | [F,A,]4 |] %135
V:3
 z8 | z8 | z D,,3!p! A,,/B,,/G,,/A,,/ F,,/G,,/E,,/F,,/ | D,,/E,,/^C,,/E,,/ G,,/B,,/A,, z4 | %4
 D,4 z4 | B,,4 z4 | G,, .A,,3 D, .^C,3 | z2 D,G,, A,,4 | .D,2 z4 .F,,2 | .B,,2 z4 z ^G,, | %10
 .A,,2 .^C,2 .E,2 D,C, | D,G,, A,,2 D,,4 |: .C,,.C, z6 | z8 | A,,2 z B,, A,,2 z A,, | %15
 D,4 .C,2 .F,,2 | B,,6 C,2 | D,4 .B,,2 F,,G,, | A,,8 | D,G,, A,,2 D,,4 ::[M:2/4] z4 | z4 | z4 | %23
 z4 | z4 | z4 | z4 | z4 | z4 | z4 | z4 | z4 | z4 | z4 | z4 |1 z4 :|2 z4 |: .C,2 .C2 | .C,2 .C2 | %39
 .G,2 .C,2 | F,3 z | .A,,2 .A,2 | .A,,2 .A,2 | .E,2 .A,,2 | D,3 z | .B,,2 .F,2 | .B,,2 .F,2 | %47
 .F,,2 .C,2 | .F,,2 .C,2 | A,4- | A,4 | .E,2 .A,,2 |1 D,2 z2 :|2[K:D] C,4 || D,2 z2 | z4 | G,2 z2 | %57
 z4 | A,2 z2 | z4 | D,4- | D,3 z | D,2 z2 | z4 | G,2 z2 | z4 | A,,4- | A,,4 | D,,4- | %69
 D,,2 F,,A,, || D,4- | D,4 | G,,4- | G,,4 | C,4- | C,4 | F,,4- | F,,4 | B,,4- | B,,4 | E,,4- | %81
 E,,4 | A,,4- | A,,4 | D,,4- | D,,2 .A,,.B,, || .=C,2 .=C2 | .=C,2 .=C2 | .G,2 .=C,2 | =F,3 z | %90
 .A,,2 .A,2 | .A,,2 .A,2 | .E,2 .A,,2 | D,3 z | .B,,2 .F,2 | .B,,2 .F,2 | .A,,2 .E,2 | .A,,2 .E,2 | %98
 A,4 | A,,4 || D,.C, .D,.E, | .D,.C, .B,,.A,, || .D,2 .E,2 | .F,2 .B,,2 | E,2 A,,2 | D,3 z | %106
 .D,2 .E,2 | .F,2 .G,2 | F,2 B,,2 | E,3 z | .E,2 .F,2 | .G,2 .B,2 | .D,2 .E,2 | .F,2 .A,2 | %114
 .C,2 .^D,2 | .E,2 .^G,2 | A,4- | A,.A,, .B,,.C, || .D,.F, .E,.G, | .F,.A, .G,.B, | A,G, F,E, | %121
 D,3 z | .D,.F, .E,.G, | .F,.A, .G,.A, | B,A, G,F, | E,3 z || E,3 .E, | G,2 B,2 | D,3 .D, | %129
 F,2 A,2 | A,,4- | A,,4 | D,2 z2 | A,,2 z2 | D,,4 |] %135
V:4
 x8 | x8 | z [FA]3 z4 | z8 | x8 | x8 | x8 | x8 | x8 | x8 | x8 | x8 |: x8 | x8 | x8 | x8 | x8 | x8 | %18
 x8 | x8 ::[M:2/4] x4 | x4 | x4 | x4 | x4 | x4 | x4 | x4 | x4 | x4 | x4 | x4 | x4 | x4 | x4 |1 %35
 x4 :|2 x4 |: x4 | x4 | x4 | x4 | x4 | x4 | x4 | x4 | x4 | x4 | x4 | x4 | x4 | x4 | x4 |1 x4 :|2 %53
[K:D] x4 || f2 f>f | f2 x2 | B2 x2 | x4 | x4 | x4 | A4- | A3 z | f2 f>f | f2 x2 | B2 x2 | x4 | x4 | %67
 x4 | GF FG | F2 x2 || d2 A>A | BA GF | FE EG | B4 | B>A AA | cB AG | GF F^E | F4 | d2 A>A | %79
 BA GF | FE EG | B4 | d2 A>A | BA AC | ED DC | D2 z2 || x4 | x4 | x4 | x4 | x4 | x4 | x4 | x4 | %94
 x4 | x4 | x4 | x4 | x4 | x4 || x4 | x4 || x4 | x4 | x4 | x4 | x4 | x4 | x4 | x4 | x4 | x4 | x4 | %113
 x4 | x4 | x4 | x4 | x4 || x4 | x4 | x4 | x4 | x4 | x4 | x4 | x4 || x4 | x4 | x4 | x4 | x4 | x4 | %132
 x4 | [eg]2 x2 | f4 |] %135
V:5
 x8 | x8 | x8 | x8 | x8 | x8 | x8 | x8 | D,6 C,2 | D,C, B,,6 | A,,4 ^C,2 E,>E, | D,2 ^C,2 D,4 |: %12
 C,2 x2 F,,/>G,,/A,,/>B,,/ A,,G,, | F,,/>G,,/A,,/>B,,/ C,/>D,/C,/>B,,/ A,,3 B,, | %14
 ^C,2 x D, C,2 x C, | A,,4 x4 | D,2 C,4 (3E,D,C, | C, D,2 C, D,2 z C, | ^C, x7 | x4 A,,4 :: %20
[M:2/4] x4 | x4 | x4 | x4 | x4 | x4 | x4 | x4 | x4 | x4 | x4 | x4 | x4 | x4 | x4 |1 x4 :|2 x4 |: %37
 x4 | x4 | x4 | x4 | x4 | x4 | x4 | x4 | x4 | x4 | x4 | x4 | x4 | x4 | x4 |1 D,2 x2 :|2[K:D] E,4 || %54
 F,2 x2 | x4 | D,2 x2 | x4 | C,2 x2 | x4 | D,4- | D,3 x | [F,A,]2 x2 | x4 | [G,A,]2 x2 | x4 | %66
 [E,A,]2 x2 | [E,G,]2 x2 | G,2 E,2 | F,2 x2 || x4 | x4 | x4 | x4 | x4 | x4 | x4 | x4 | x4 | x4 | %80
 x4 | x4 | x4 | x4 | x4 | x4 || x4 | x4 | x4 | x4 | x4 | x4 | x4 | x4 | x4 | x4 | x4 | x4 | x4 | %99
 x4 || =F, x3 | x4 || x4 | x4 | x4 | x4 | x4 | x4 | x4 | x4 | x4 | x4 | x4 | x4 | x4 | x4 | x4 | %117
 x4 || x4 | x4 | x4 | x4 | x4 | x4 | x4 | x4 || x4 | x4 | x4 | x4 | x4 | x4 | x4 | C,2 x2 | D,4 |] %135
V:6
 x8 | x8 | x8 | x8 | x8 | x8 | x8 | x8 | x8 | x8 | x8 | x8 |: x8 | x8 | x8 | x8 | x8 | x8 | x8 | %19
 x8 ::[M:2/4] x4 | x4 | x4 | x4 | x4 | x4 | x4 | x4 | x4 | x4 | x4 | x4 | x4 | x4 | x4 |1 x4 :|2 %36
 x4 |: x4 | x4 | x4 | x4 | x4 | x4 | x4 | x4 | x4 | x4 | x4 | x4 | x4 | x4 | x4 |1 x4 :|2 %53
[K:D] x4 || x4 | x4 | x4 | x4 | x4 | x4 | x4 | x4 | x4 | x4 | x4 | x4 | x4 | x4 | A,4- | A,2 x2 || %70
 x4 | x4 | x4 | x4 | x4 | x4 | x4 | x4 | x4 | x4 | x4 | x4 | x4 | x4 | x4 | x4 || x4 | x4 | x4 | %89
 x4 | x4 | x4 | x4 | x4 | x4 | x4 | x4 | x4 | x4 | x4 || x4 | x4 || x4 | x4 | x4 | x4 | x4 | x4 | %108
 x4 | x4 | x4 | x4 | x4 | x4 | x4 | x4 | x4 | x4 || x4 | x4 | x4 | x4 | x4 | x4 | x4 | x4 || x4 | %127
 x4 | x4 | x4 | x4 | x4 | x4 | x4 | x4 |] %135

